48x48/apps/braid.svg

<svg viewBox="0 0 48 48" xmlns:xlink="http://www.w3.org/1999/xlink"><defs><linearGradient id="linearGradient3764" x1="1" x2="47" gradientUnits="userSpaceOnUse" gradientTransform="matrix(0,-1,1,0,-1.5e-6,47.999998)"><stop stop-color="#d1662b" stop-opacity="1"/><stop offset="1" stop-color="#d66f39" stop-opacity="1"/></linearGradient><clipPath id="clipPath-607808769"><g transform="translate(0,-1004.3622)"><path d="m -24 13 c 0 1.105 -0.672 2 -1.5 2 -0.828 0 -1.5 -0.895 -1.5 -2 0 -1.105 0.672 -2 1.5 -2 0.828 0 1.5 0.895 1.5 2 z" transform="matrix(15.333333,0,0,11.5,414.99999,878.8622)" fill="#1890d0"/></g></clipPath><clipPath id="clipPath-617563317"><g transform="translate(0,-1004.3622)"><path d="m -24 13 c 0 1.105 -0.672 2 -1.5 2 -0.828 0 -1.5 -0.895 -1.5 -2 0 -1.105 0.672 -2 1.5 -2 0.828 0 1.5 0.895 1.5 2 z" transform="matrix(15.333333,0,0,11.5,414.99999,878.8622)" fill="#1890d0"/></g></clipPath></defs><g><path d="m 36.31 5 c 5.859 4.062 9.688 10.831 9.688 18.5 c 0 12.426 -10.07 22.5 -22.5 22.5 c -7.669 0 -14.438 -3.828 -18.5 -9.688 c 1.037 1.822 2.306 3.499 3.781 4.969 c 4.085 3.712 9.514 5.969 15.469 5.969 c 12.703 0 23 -10.298 23 -23 c 0 -5.954 -2.256 -11.384 -5.969 -15.469 c -1.469 -1.475 -3.147 -2.744 -4.969 -3.781 z m 4.969 3.781 c 3.854 4.113 6.219 9.637 6.219 15.719 c 0 12.703 -10.297 23 -23 23 c -6.081 0 -11.606 -2.364 -15.719 -6.219 c 4.16 4.144 9.883 6.719 16.219 6.719 c 12.703 0 23 -10.298 23 -23 c 0 -6.335 -2.575 -12.06 -6.719 -16.219 z" opacity="0.05"/><path d="m 41.28 8.781 c 3.712 4.085 5.969 9.514 5.969 15.469 c 0 12.703 -10.297 23 -23 23 c -5.954 0 -11.384 -2.256 -15.469 -5.969 c 4.113 3.854 9.637 6.219 15.719 6.219 c 12.703 0 23 -10.298 23 -23 c 0 -6.081 -2.364 -11.606 -6.219 -15.719 z" opacity="0.1"/><path d="m 31.25 2.375 c 8.615 3.154 14.75 11.417 14.75 21.13 c 0 12.426 -10.07 22.5 -22.5 22.5 c -9.708 0 -17.971 -6.135 -21.12 -14.75 a 23 23 0 0 0 44.875 -7 a 23 23 0 0 0 -16 -21.875 z" opacity="0.2"/></g><g><path d="m 24 1 c 12.703 0 23 10.297 23 23 c 0 12.703 -10.297 23 -23 23 -12.703 0 -23 -10.297 -23 -23 0 -12.703 10.297 -23 23 -23 z" fill="url(#linearGradient3764)" fill-opacity="1"/></g><g/><g><g clip-path="url(#clipPath-607808769)"><g transform="translate(1,1)"><g opacity="0.1"><!-- color: #d66f39 --><g><use xlink:href="#SVGCleanerId_0"/><use xlink:href="#SVGCleanerId_1"/></g></g></g></g></g><g><g clip-path="url(#clipPath-617563317)"><!-- color: #d66f39 --><g><path d="m 0 26 c 0.129 1.383 0 6.711 0 8 l 1 -1 l 0 -3 l 5 0 l 0 3 l -6 0 c 0 0.348 0 6 0 6 l 6 -3 l 0 -2 l 38 0 c 0.352 0 3.801 0 4 0 c 0.023 0 0 -0.801 0 -1 l -3 0 l 3 -1.801 c 0 -0.199 0 -0.465 0 -0.637 c -0.211 -0.004 -4 2.453 -4 2.438 l 0 -3 l 4 0 c 0 -1 0 -2.648 0 -4 m -41 4 l 4 3 l -4 0 m 1 -3 l 4 0 l 0 3 m 1 -3 l 4 0 l -4 3 m 5 -3 l 0 3 l -4 0 m 5 -3 l 5 3 l -5 0 m 1 -3 l 5 0 l 0 3 m 1 -3 l 5 0 l -5 3 m 6 -3 l 0 3 l -5 0 m 6 -3 l 4 3 l -4 0 m 1 -3 l 4 0 l 0 3 m 1 -3 l 3 0 l -3 3 m 0 -3" fill="#000" stroke="none" fill-rule="nonzero" fill-opacity="1" id="SVGCleanerId_0"/><path d="m 3.33 7.7 c -0.064 0.01 -0.122 0.024 -0.182 0.049 c -0.16 0.06 -0.302 0.16 -0.472 0.186 c -0.084 0.013 -0.172 0.002 -0.247 -0.035 c -0.035 -0.02 -0.067 -0.049 -0.095 -0.082 c -0.025 -0.034 -0.04 -0.075 -0.043 -0.118 c -0.003 -0.043 0.007 -0.086 0.022 -0.128 c 0.014 -0.04 0.035 -0.076 0.053 -0.117 c 0.039 -0.082 0.071 -0.17 0.132 -0.238 c 0.031 -0.033 0.067 -0.063 0.099 -0.098 c 0.018 -0.017 0.031 -0.034 0.042 -0.055 c 0.01 -0.021 0.013 -0.045 0.012 -0.068 c -0.001 -0.028 -0.012 -0.053 -0.025 -0.077 c -0.013 -0.024 -0.03 -0.047 -0.041 -0.072 c -0.019 -0.04 -0.022 -0.083 -0.019 -0.126 c 0.008 -0.043 0.022 -0.085 0.047 -0.119 c 0.05 -0.066 0.131 -0.108 0.216 -0.118 c 0.064 -0.008 0.13 0.007 0.185 0.035 c 0.055 0.031 0.103 0.08 0.128 0.139 c 0.009 0.022 0.014 0.047 0.012 0.074 c -0.002 0.013 -0.009 0.032 -0.015 0.043 c -0.008 0.014 -0.019 0.031 -0.029 0.043 c -0.02 0.024 -0.042 0.053 -0.051 0.086 c -0.007 0.032 0.001 0.064 0.014 0.094 c 0.013 0.029 0.033 0.055 0.052 0.082 c 0.126 0.182 0.193 0.401 0.194 0.622" transform="matrix(3.543307,0,0,3.543307,0,0)" stroke-opacity="1" fill="#000" fill-rule="nonzero" stroke="#000" stroke-linejoin="miter" fill-opacity="1" stroke-linecap="butt" stroke-width="0.282" stroke-miterlimit="4" id="SVGCleanerId_1"/></g></g></g><g><path d="m 40.03 7.531 c 3.712 4.084 5.969 9.514 5.969 15.469 0 12.703 -10.297 23 -23 23 c -5.954 0 -11.384 -2.256 -15.469 -5.969 4.178 4.291 10.01 6.969 16.469 6.969 c 12.703 0 23 -10.298 23 -23 0 -6.462 -2.677 -12.291 -6.969 -16.469 z" opacity="0.1"/></g></svg>

<?xml version="1.0" encoding="UTF-8" standalone="no"?>
<svg
   xmlns:dc="http://purl.org/dc/elements/1.1/"
   xmlns:cc="http://creativecommons.org/ns#"
   xmlns:rdf="http://www.w3.org/1999/02/22-rdf-syntax-ns#"
   xmlns:svg="http://www.w3.org/2000/svg"
   xmlns="http://www.w3.org/2000/svg"
   xmlns:sodipodi="http://sodipodi.sourceforge.net/DTD/sodipodi-0.dtd"
   xmlns:inkscape="http://www.inkscape.org/namespaces/inkscape"
   viewBox="0 0 48 48"
   id="svg2"
   version="1.1"
   inkscape:version="0.48.4 r9939"
   width="100%"
   height="100%"
   sodipodi:docname="braid.svg">
  <metadata
     id="metadata63">
    <rdf:RDF>
      <cc:Work
         rdf:about="">
        <dc:format>image/svg+xml</dc:format>
        <dc:type
           rdf:resource="http://purl.org/dc/dcmitype/StillImage" />
      </cc:Work>
    </rdf:RDF>
  </metadata>
  <sodipodi:namedview
     pagecolor="#ffffff"
     bordercolor="#666666"
     borderopacity="1"
     objecttolerance="10"
     gridtolerance="10"
     guidetolerance="10"
     inkscape:pageopacity="0"
     inkscape:pageshadow="2"
     inkscape:window-width="1440"
     inkscape:window-height="834"
     id="namedview61"
     showgrid="false"
     inkscape:zoom="4.9166667"
     inkscape:cx="-1.4237288"
     inkscape:cy="24"
     inkscape:window-x="0"
     inkscape:window-y="27"
     inkscape:window-maximized="1"
     inkscape:current-layer="svg2" />
  <defs
     id="defs4">
    <linearGradient
       id="linearGradient3764"
       x1="1"
       x2="47"
       gradientUnits="userSpaceOnUse"
       gradientTransform="matrix(0,-1,1,0,-1.5e-6,47.999998)">
      <stop
         stop-color="#d1662b"
         stop-opacity="1"
         id="stop7" />
      <stop
         offset="1"
         stop-color="#d66f39"
         stop-opacity="1"
         id="stop9" />
    </linearGradient>
    <clipPath
       id="clipPath-607808769">
      <g
         transform="translate(0,-1004.3622)"
         id="g12">
        <path
           d="m -24 13 c 0 1.105 -0.672 2 -1.5 2 -0.828 0 -1.5 -0.895 -1.5 -2 0 -1.105 0.672 -2 1.5 -2 0.828 0 1.5 0.895 1.5 2 z"
           transform="matrix(15.333333,0,0,11.5,414.99999,878.8622)"
           fill="#1890d0"
           id="path14" />
      </g>
    </clipPath>
    <clipPath
       id="clipPath-617563317">
      <g
         transform="translate(0,-1004.3622)"
         id="g17">
        <path
           d="m -24 13 c 0 1.105 -0.672 2 -1.5 2 -0.828 0 -1.5 -0.895 -1.5 -2 0 -1.105 0.672 -2 1.5 -2 0.828 0 1.5 0.895 1.5 2 z"
           transform="matrix(15.333333,0,0,11.5,414.99999,878.8622)"
           fill="#1890d0"
           id="path19" />
      </g>
    </clipPath>
    <linearGradient
       id="linearGradient3764-9"
       x1="1"
       x2="47"
       gradientUnits="userSpaceOnUse"
       gradientTransform="matrix(0,-1,1,0,-1.5e-6,47.999998)">
      <stop
         stop-color="#b5945b"
         stop-opacity="1"
         id="stop7-5" />
      <stop
         offset="1"
         stop-color="#bb9e69"
         stop-opacity="1"
         id="stop9-5" />
    </linearGradient>
    <clipPath
       id="clipPath-899834956">
      <g
         transform="translate(0,-1004.3622)"
         id="g12-9">
        <path
           d="m -24 13 c 0 1.105 -0.672 2 -1.5 2 -0.828 0 -1.5 -0.895 -1.5 -2 0 -1.105 0.672 -2 1.5 -2 0.828 0 1.5 0.895 1.5 2 z"
           transform="matrix(15.333333,0,0,11.5,414.99999,878.8622)"
           fill="#1890d0"
           id="path14-3" />
      </g>
    </clipPath>
    <clipPath
       id="clipPath-909443126">
      <g
         transform="translate(0,-1004.3622)"
         id="g17-7">
        <path
           d="m -24 13 c 0 1.105 -0.672 2 -1.5 2 -0.828 0 -1.5 -0.895 -1.5 -2 0 -1.105 0.672 -2 1.5 -2 0.828 0 1.5 0.895 1.5 2 z"
           transform="matrix(15.333333,0,0,11.5,414.99999,878.8622)"
           fill="#1890d0"
           id="path19-0" />
      </g>
    </clipPath>
    <clipPath
       id="clipPath-909443126-7">
      <g
         transform="translate(0,-1004.3622)"
         id="g17-2">
        <path
           style="fill:#1890d0"
           inkscape:connector-curvature="0"
           d="m -24,13 c 0,1.105 -0.672,2 -1.5,2 -0.828,0 -1.5,-0.895 -1.5,-2 0,-1.105 0.672,-2 1.5,-2 0.828,0 1.5,0.895 1.5,2 z"
           transform="matrix(15.333333,0,0,11.5,414.99999,878.8622)"
           id="path19-3" />
      </g>
    </clipPath>
    <linearGradient
       id="linearGradient3759">
      <stop
         id="stop3761"
         offset="0"
         style="stop-color:#a75e15;stop-opacity:1;" />
      <stop
         id="stop3763"
         offset="1"
         style="stop-color:#ffffff;stop-opacity:0;" />
    </linearGradient>
    <linearGradient
       id="linearGradient3777">
      <stop
         id="stop3779"
         offset="0"
         style="stop-color:#e0dd00;stop-opacity:1;" />
      <stop
         id="stop3781"
         offset="1"
         style="stop-color:#000000;stop-opacity:0;" />
    </linearGradient>
    <clipPath
       id="clipPath-617563317-5">
      <g
         transform="translate(0,-1004.3622)"
         id="g17-0">
        <path
           style="fill:#1890d0"
           inkscape:connector-curvature="0"
           d="m -24,13 c 0,1.105 -0.672,2 -1.5,2 -0.828,0 -1.5,-0.895 -1.5,-2 0,-1.105 0.672,-2 1.5,-2 0.828,0 1.5,0.895 1.5,2 z"
           transform="matrix(15.333333,0,0,11.5,414.99999,878.8622)"
           id="path19-37" />
      </g>
    </clipPath>
  </defs>
  <g
     id="g33" />
  <g
     id="g3087">
    <g
       inkscape:label="shadows"
       id="layer2">
      <rect
         ry="13.03658"
         rx="13.03658"
         y="1"
         x="1"
         height="46"
         width="46"
         id="rect3007"
         style="opacity:0.1;fill:#000000;fill-opacity:1;fill-rule:nonzero;stroke:none" />
      <rect
         style="opacity:0.1;fill:#000000;fill-opacity:1;fill-rule:nonzero;stroke:none"
         id="rect3011"
         width="47"
         height="47"
         x="0.5"
         y="0.5"
         rx="13.319984"
         ry="13.319984" />
      <rect
         style="opacity:0.1;fill:#000000;fill-opacity:1;fill-rule:nonzero;stroke:none"
         id="rect3013"
         width="46.5"
         height="46.5"
         x="0.75"
         y="0.75"
         rx="13.178282"
         ry="13.178282" />
    </g>
    <g
       style="display:inline"
       inkscape:label="background-color"
       id="layer1">
      <rect
         transform="matrix(0,-1,1,0,0,0)"
         ry="12.753176"
         rx="12.753176"
         y="1.5"
         x="-46.5"
         height="45"
         width="45"
         id="rect2988"
         style="fill:#d1662b;fill-opacity:1;fill-rule:nonzero;stroke:none" />
    </g>
  </g>
  <g
     transform="matrix(0.97789241,0,0,1,0.53058363,5.6729777)"
     id="g49-0">
    <g
       clip-path="url(#clipPath-617563317-5)"
       id="g51-6">
      <!-- color: #d66f39 -->
      <g
         id="g53-2">
        <path
           style="fill:#000000;fill-opacity:1;fill-rule:nonzero;stroke:none"
           inkscape:connector-curvature="0"
           d="m 0,26 c 0.129,1.383 0,6.711 0,8 l 1,-1 0,-3 5,0 0,3 -6,0 c 0,0.348 0,6 0,6 l 6,-3 0,-2 38,0 c 0.352,0 3.801,0 4,0 0.023,0 0,-0.801 0,-1 l -3,0 3,-1.801 C 48,31 48,30.734 48,30.562 47.789,30.558 44,33.015 44,33 l 0,-3 4,0 c 0,-1 0,-2.648 0,-4 m -41,4 4,3 -4,0 m 1,-3 4,0 0,3 m 1,-3 4,0 -4,3 m 5,-3 0,3 -4,0 m 5,-3 5,3 -5,0 m 1,-3 5,0 0,3 m 1,-3 5,0 -5,3 m 6,-3 0,3 -5,0 m 6,-3 4,3 -4,0 m 1,-3 4,0 0,3 m 1,-3 3,0 -3,3 m 0,-3"
           id="SVGCleanerId_0-0" />
        <path
           style="fill:#000000;fill-opacity:1;fill-rule:nonzero;stroke:#000000;stroke-width:0.28200001;stroke-linecap:butt;stroke-linejoin:miter;stroke-miterlimit:4;stroke-opacity:1"
           inkscape:connector-curvature="0"
           d="M 3.33,7.7 C 3.266,7.71 3.208,7.724 3.148,7.749 2.988,7.809 2.846,7.909 2.676,7.935 2.592,7.948 2.504,7.937 2.429,7.9 2.394,7.88 2.362,7.851 2.334,7.818 2.309,7.784 2.294,7.743 2.291,7.7 2.288,7.657 2.298,7.614 2.313,7.572 2.327,7.532 2.348,7.496 2.366,7.455 2.405,7.373 2.437,7.285 2.498,7.217 2.529,7.184 2.565,7.154 2.597,7.119 2.615,7.102 2.628,7.085 2.639,7.064 2.649,7.043 2.652,7.019 2.651,6.996 2.65,6.968 2.639,6.943 2.626,6.919 2.613,6.895 2.596,6.872 2.585,6.847 2.566,6.807 2.563,6.764 2.566,6.721 2.574,6.678 2.588,6.636 2.613,6.602 2.663,6.536 2.744,6.494 2.829,6.484 2.893,6.476 2.959,6.491 3.014,6.519 3.069,6.55 3.117,6.599 3.142,6.658 3.151,6.68 3.156,6.705 3.154,6.732 3.152,6.745 3.145,6.764 3.139,6.775 3.131,6.789 3.12,6.806 3.11,6.818 3.09,6.842 3.068,6.871 3.059,6.904 3.052,6.936 3.06,6.968 3.073,6.998 3.086,7.027 3.106,7.053 3.125,7.08 3.251,7.262 3.318,7.481 3.319,7.702"
           transform="scale(3.543307,3.543307)"
           stroke-miterlimit="4"
           id="SVGCleanerId_1-7" />
      </g>
    </g>
  </g>
</svg>
